src/lib/packages/icons/src/assets/filled/file-text-heart.svg

<svg width="24" height="24" viewBox="0 0 24 24" fill="none" xmlns="http://www.w3.org/2000/svg">
<path d="M12.75 6V3.75L17.25 8.25H15C13.42 8.25 12.75 7.58 12.75 6ZM13.3999 20.54C13.5399 20.74 13.3899 21 13.1499 21H6C4 21 3 20 3 18V6C3 4 4 3 6 3H11.25V6C11.25 8.42 12.58 9.75 15 9.75H18V13.97C18 14.23 17.65 14.32 17.5 14.41C17.08 14.16 16.57 14 15.96 14C14.89 14.01 13.9601 14.43 13.3301 15.2C12.6101 16.09 12.3401 17.34 12.5901 18.64C12.7301 19.35 13.0299 19.99 13.3999 20.54ZM6.25 12C6.25 12.414 6.586 12.75 7 12.75H14C14.414 12.75 14.75 12.414 14.75 12C14.75 11.586 14.414 11.25 14 11.25H7C6.586 11.25 6.25 11.586 6.25 12ZM11.75 16C11.75 15.586 11.414 15.25 11 15.25H7C6.586 15.25 6.25 15.586 6.25 16C6.25 16.414 6.586 16.75 7 16.75H11C11.414 16.75 11.75 16.414 11.75 16ZM19.051 15.5C17.893 15.495 17.5039 16.643 17.5039 16.643C17.5039 16.643 17.115 15.495 15.957 15.5C14.401 15.507 13.7901 16.935 14.0701 18.354C14.5271 20.667 17.5039 22 17.5039 22C17.5039 22 20.482 20.668 20.938 18.354C21.218 16.935 20.61 15.507 19.051 15.5Z" fill="currentColor"/>
</svg>

<svg xmlns="http://www.w3.org/2000/svg" width="24" height="24" fill="none"><path fill="currentColor" d="M12.75 6V3.75l4.5 4.5H15c-1.58 0-2.25-.67-2.25-2.25Zm.65 14.54c.14.2-.01.46-.25.46H6c-2 0-3-1-3-3V6c0-2 1-3 3-3h5.25v3c0 2.42 1.33 3.75 3.75 3.75h3v4.22c0 .26-.35.35-.5.44a2.96 2.96 0 0 0-1.54-.41c-1.07.01-2 .43-2.63 1.2-.72.89-.99 2.14-.74 3.44.14.71.44 1.35.81 1.9ZM6.25 12c0 .414.336.75.75.75h7a.75.75 0 0 0 0-1.5H7a.75.75 0 0 0-.75.75Zm5.5 4a.75.75 0 0 0-.75-.75H7a.75.75 0 0 0 0 1.5h4a.75.75 0 0 0 .75-.75Zm7.301-.5c-1.158-.005-1.547 1.143-1.547 1.143s-.389-1.148-1.547-1.143c-1.556.007-2.167 1.435-1.887 2.854.457 2.313 3.434 3.646 3.434 3.646s2.978-1.332 3.434-3.646c.28-1.419-.328-2.847-1.887-2.854Z"/></svg>
